X: 100381
T: MRS. FINDLAY'S, OF HAYWOOD, REEL
C: Composed by William Findlay, Haywood
R: reel
B: K\"ohler's Violin Repository, v.3, 1885 p.252 #2
F: http://www.archive.org/details/klersviolinrepos03rugg
Z: 2012 John Chambers <jc:trillian.mit.edu>
M: C
L: 1/8
K: D
uF |\
D2FA (de)fa | (gf)ed (cd)ef | D2FA (de)fa | gfeg fddF |\
D2FA (de)fa | (gf)ed (cd)eg | fdec dBAG | FAde fdd ||
f |\
afdf Afdf | bgeb gbeb | afdf Afdb | ageg fddf |\
afdf Afdf | bgeb gbeb | afge fdec | Adeg fd"^Fine."d |]

%%sep 2 1 500

